X:106
T:Froggies First Jump
R:polka 32
M:4/4
C:Dave Whetstone
S:Over the Water
N:
A:Bampton
O:Oxon.
R:Reel
K:G
P:A
dedc  BGBd  | c2 B2 A3 c | BcBA G2 B2 | A2 FG A4    |\
dedc  BGBd  | c2 B2 A3 c | BcBG E2 F2 | G4    G4    ||\
P:B
AFGA  B2 A2 | G3  A G3 A | BGAB c2 e2 | d6       Bc |\
d2 d2 c2 c2 | B2 B2 A3 c | BcBG E2 F2 | G4    G4    ||

